public/icons/team-fb.svg

<svg width="35" height="35" viewBox="0 0 35 35" fill="none" xmlns="http://www.w3.org/2000/svg">
<ellipse opacity="0.1" cx="17.5058" cy="17.5" rx="17.4941" ry="17.5" fill="#093160"/>
<path d="M24.9908 20.6425C24.9908 23.3725 23.3618 25 20.6293 25H19.736C19.3231 25 18.9853 24.6625 18.9853 24.25V19.9225C18.9853 19.72 19.1505 19.5475 19.3532 19.5475L20.6744 19.525C20.7795 19.5175 20.8696 19.4425 20.8921 19.3375L21.1548 17.905C21.1773 17.77 21.0722 17.6425 20.9296 17.6425L19.3306 17.665C19.1204 17.665 18.9553 17.5 18.9478 17.2975L18.9178 15.46C18.9178 15.34 19.0153 15.235 19.143 15.235L20.9446 15.205C21.0722 15.205 21.1698 15.1075 21.1698 14.98L21.1398 13.18C21.1398 13.0525 21.0422 12.955 20.9146 12.955L18.8877 12.985C17.6416 13.0075 16.6507 14.0275 16.6732 15.2725L16.7107 17.335C16.7182 17.545 16.5531 17.71 16.3429 17.7175L15.4421 17.7325C15.3145 17.7325 15.2169 17.83 15.2169 17.9575L15.2394 19.3825C15.2394 19.51 15.337 19.6075 15.4646 19.6075L16.3654 19.5925C16.5756 19.5925 16.7408 19.7575 16.7483 19.96L16.8158 24.235C16.8233 24.655 16.4855 25 16.0651 25H14.3386C11.606 25 9.97705 23.3725 9.97705 20.635V14.3575C9.97705 11.6275 11.606 10 14.3386 10H20.6293C23.3618 10 24.9908 11.6275 24.9908 14.3575V20.6425Z" fill="#093160"/>
</svg>

<svg xmlns="http://www.w3.org/2000/svg" width="35" height="35" fill="none"><ellipse cx="17.506" cy="17.5" fill="#093160" opacity=".1" rx="17.494" ry="17.5"/><path fill="#093160" d="M24.99 20.643c0 2.73-1.628 4.357-4.36 4.357h-.894a.753.753 0 0 1-.75-.75v-4.328c0-.202.165-.375.367-.375l1.321-.022a.24.24 0 0 0 .218-.187l.263-1.433a.227.227 0 0 0-.225-.263l-1.6.023a.38.38 0 0 1-.382-.367l-.03-1.838c0-.12.097-.225.225-.225l1.802-.03a.22.22 0 0 0 .225-.225l-.03-1.8a.22.22 0 0 0-.225-.225l-2.027.03a2.25 2.25 0 0 0-2.215 2.288l.038 2.062a.37.37 0 0 1-.368.383l-.9.015a.22.22 0 0 0-.226.224l.022 1.425c0 .128.098.226.226.226l.9-.015c.21 0 .376.165.383.367l.068 4.275a.75.75 0 0 1-.75.765h-1.727c-2.733 0-4.362-1.628-4.362-4.365v-6.278c0-2.73 1.629-4.357 4.362-4.357h6.29c2.733 0 4.362 1.627 4.362 4.358z"/></svg>
